iphone/Maps/Images.xcassets/Interface/Search/Categories/food.imageset/food_light.svg

<?xml version="1.0" encoding="UTF-8"?>
<svg width="28px" height="28px" viewBox="0 0 28 28" version="1.1" xmlns="http://www.w3.org/2000/svg" xmlns:xlink="http://www.w3.org/1999/xlink">
    <title>food_light</title>
    <g id="food_light" stroke="none" fill="none" fill-rule="evenodd">
        <path d="M14,0 C21.7319865,0 28,6.2680135 28,14 C28,21.7319865 21.7319865,28 14,28 C6.2680135,28 0,21.7319865 0,14 C0,6.2680135 6.2680135,0 14,0 Z M11.3735667,18.307716 C10.6313217,18.307716 10.0307333,18.9134843 10.0307333,19.653816 C10.0307333,20.394206 10.631275,20.999916 11.3735667,20.999916 C12.1158117,20.999916 12.72305,20.3941477 12.72305,19.653816 C12.72305,18.913426 12.115765,18.307716 11.3735667,18.307716 Z M17.8350333,18.307716 C17.0927883,18.307716 16.4922,18.9134843 16.4922,19.653816 C16.4922,20.394206 17.0927417,20.999916 17.8350333,20.999916 C18.577325,20.999916 19.1845167,20.3941477 19.1845167,19.653816 C19.1845167,18.913426 18.5772317,18.307716 17.8350333,18.307716 Z M8.90007,7 L7.37395333,7 C7.08872083,7 6.85200463,7.20231505 6.80751372,7.48998439 L6.804,7.537 L6.80787378,7.58356913 C6.8544439,7.86337323 7.1015005,8.07692433 7.38562,8.07692433 L8.2,8.07692433 L10.3,14.5385077 C9.59784491,14.5385077 9.0212948,15.2360993 8.95940083,16.1271425 L8.958,16.146 L8.95971279,16.1648718 C9.03286093,17.0630882 9.78722142,17.769311 10.7023833,17.769311 L18.8085,17.769311 C19.102542,17.769311 19.3464707,17.566996 19.392316,17.2793266 L19.396,17.231 L19.3921743,17.1857465 C19.3455447,16.9059424 19.0981857,16.6923913 18.8139717,16.6923913 L10.6169717,16.6923913 C10.3256492,16.6923913 10.083977,16.4900763 10.0385558,16.2024069 L10.034,16.154 L10.0386773,16.1088269 C10.0847592,15.8290228 10.3291352,15.6154717 10.6084667,15.6154717 L18.0620667,15.6154717 C19.2169033,15.6154717 19.113315,15.3197567 19.2870667,14.969325 L20.7161167,10.1360583 C20.7721167,10.0380583 20.8001167,9.91905833 20.8001167,9.80005833 C20.8001167,9.41505833 20.4851167,9.10005833 20.2616533,9.1539 L9.74707,9.1539 L8.90007,7 Z" id="Shape" fill="#BE75A3"></path>
    </g>
</svg>

<svg height="28" viewBox="0 0 28 28" width="28" xmlns="http://www.w3.org/2000/svg"><g fill="none" opacity=".898664"><circle cx="14" cy="14" fill="#be75a3" fill-rule="evenodd" r="14"/><path d="m11.3735667 18.307716c-.742245 0-1.3428334.6057683-1.3428334 1.3461 0 .74039.6005417 1.3461 1.3428334 1.3461.742245 0 1.3494833-.6057683 1.3494833-1.3461 0-.74039-.607285-1.3461-1.3494833-1.3461zm-4.5735667-10.81966667c0 .32523167.26993167.588875.58562.588875h.81438l2.1 6.46158337c-.74345833 0-1.3461.782075-1.3461 1.7477833v-.2647633c0 .965265.785155 1.7477833 1.7484833 1.7477833h8.1061167c.3267133 0 .5915583-.2497717.5915583-.588875v.1008303c0-.3252316-.2702933-.588875-.5860866-.588875h-8.197c-.3236917 0-.5860867-.2497716-.5860867-.588875v.1008304c0-.3252317.2672133-.588875.5775817-.588875h7.4536c1.1548366 0 1.0512483-.295715 1.225-.6461467l1.42905-4.8332667c.056-.098.084-.21699997.084-.33599997 0-.385-.315-.7-.5384634-.64615833h-10.5145833l-.847-2.1539h-1.52611667c-.316925 0-.57395333.24977167-.57395333.588875v-.10083033zm11.0350333 10.81966667c-.742245 0-1.3428333.6057683-1.3428333 1.3461 0 .74039.6005417 1.3461 1.3428333 1.3461.7422917 0 1.3494834-.6057683 1.3494834-1.3461 0-.74039-.607285-1.3461-1.3494834-1.3461z" fill="#fff"/></g></svg>
